src/img/icons/search-white.svg

<?xml version="1.0" encoding="UTF-8"?>
<svg xmlns="http://www.w3.org/2000/svg" width="60" height="60" viewBox="0 0 60 60">
  <path d="M40.196 36.123h-2.145l-.761-.733a17.572 17.572 0 004.263-11.486c0-9.748-7.901-17.649-17.649-17.649-9.748 0-17.649 7.901-17.649 17.649 0 9.748 7.901 17.649 17.649 17.649 4.372 0 8.39-1.602 11.486-4.263l.733.761v2.145l13.576 13.549 4.046-4.046-13.549-13.576zm-16.292 0a12.202 12.202 0 01-12.218-12.219 12.201 12.201 0 0112.218-12.218 12.202 12.202 0 0112.219 12.218 12.203 12.203 0 01-12.219 12.219z" fill="#FFF"/>
</svg>

<?xml version="1.0" encoding="UTF-8"?>
<!DOCTYPE svg PUBLIC "-//W3C//DTD SVG 1.1//EN" "http://www.w3.org/Graphics/SVG/1.1/DTD/svg11.dtd">
<svg version="1.1" xmlns="http://www.w3.org/2000/svg" xmlns:xlink="http://www.w3.org/1999/xlink" x="0" y="0" width="60" height="60" viewBox="0, 0, 60, 60">
  <g id="Layer_1">
    <path d="M40.196,36.123 L38.051,36.123 L37.29,35.39 C39.951,32.294 41.553,28.276 41.553,23.904 C41.553,14.156 33.652,6.255 23.904,6.255 C14.156,6.255 6.255,14.156 6.255,23.904 C6.255,33.652 14.156,41.553 23.904,41.553 C28.276,41.553 32.294,39.951 35.39,37.29 L36.123,38.051 L36.123,40.196 L49.699,53.745 L53.745,49.699 L40.196,36.123 z M23.904,36.123 C17.143,36.123 11.686,30.665 11.686,23.904 C11.686,17.143 17.143,11.686 23.904,11.686 C30.665,11.686 36.123,17.143 36.123,23.904 C36.123,30.665 30.665,36.123 23.904,36.123 z" fill="#FFFFFF"/>
  </g>
</svg>
